!!!ONB: MCCC : IFC0008_00 : Extracted Monophonic Melody
!!!COM: Chopin, Frédéric
!!!OTL: Ballade No.4
!!!SCT: Op.52
!!!ODT: 1842///
**kern
*thru
*staff1
*Ipiano
*clefG2
*k[b-e-a-d-]
*f:
*M6/8
*MM104
=1
8gg
8gg
8gg
8gg
8gg
8gg
=2
8gg
8gg
8gg
8gg
8ff
8ee
=3
8ee
8dd
8cc
4.ee
=4
8gg
8gg
8gg
8gg
8ff
8ee
=5
8ee
8dd
8cc
4.ee
=6
8ee
8dd
8cc
4.ee[
=7
4.ee_
4ee]
8cc[
=8
8cc]
8dd-
[8b
8b]
8cc
8ff
=9
8ee
8b-
4dd-
8cc
8ff
=10
8ee
8b-
8dd-
8r
16cc
16dd-
16cc
16dd-
=11
8ee-
8ee-
8ee-
8ee-
16dd-
16cc
16b-
16cc
=12
8a-
8r
8r
4r
8r
=13
8r
8ee-
8aa-
8gg
8dd-
[8ff-
=14
8ff-]
8ee-
8aa-
8gg
8dd-
8ff-
=15
8r
16ee-
16ff
16ee-
16ff
8gg-
8gg-
8gg-
=16
8gg-
16ff
16cc
16ee-
16dd-
8b-
8r
8r
=17
8r
16dd-
16ee-
16dd-
16ee-
8ff
8ff
8ff
=18
8ff
16ee-
16b-
16dd-
16cc
8a
8cc
8ff
=19
8ee
8b-
4dd-
8cc
8ff
=20
8ee
8b-
8dd-
8r
16cc
16dd-
16cc
16dd-
=21
8ee-
8ee-
8ee-
8ee-
16ff
16cc
16ee-
16dd-
=22
4.b-
4g
8r
=23
8r
8cc
8ff
8ee
8b-
[8dd-
=24
8dd-]
8cc
[8ff
16ff]
16ee
16b-
16cc
16ee-
16dd-
=25
8r
16cc
16dd-
16cc
16dd-
8ee-
8ee-
8ee-
=26
8ee-
16dd-
16cc
16b-
16cc
8a-
8r
8r
=27
4r
8r
8r
8ee-
8aa-
=28
8gg
8dd-
4ff-
8ee-
[8aa-
=29
16aa-]
16gg
16dd-
16ee-
16gg-
16ff-
8r
16ee-
16ff
16ee-
16ff
=30
8gg-
8gg-
8gg-
8gg-
16ff
16cc
16ee-
16dd-
=31
8b-
8r
8r
8r
16dd-
16ee-
16dd-
16ee-
=32
8ff
8ff
8ff
8ff
16ee-
16b-
16dd-
16cc
=33
8a
8cc
8ff
8ee
8b-
[8dd-
=34
8dd-]
8cc
[8ff
16ff]
16ee
16b-
16cc
16ee-
16dd-
=35
8r
16cc
16dd-
16cc
16dd-
8ee-
8ee-
8ee-
=36
8ee-
16ff
16cc
16ee-
16dd-
4b-
8r
=37
2.r
=38
4r
8r
4gg-
8gg-
=39
[2.gg-
=40
4.gg-]
4gg-
8gg-
=41
4.gg-
4.ff
=42
4.ff-
4ff-
8ff-
=43
[2.ff-
=44
4.ff-]
4ff-
8ff-
=45
4.ff-
4.ee-
=46
8d
16dd
16ee-
16dd
16ee-
8ff
8ff
8ff
=47
8ff
16gg-
16ff
16ee-
16a-
4.ccc-
=48
8r
16dd
16ee-
16dd
16ee-
8ff
8ff
8ff
=49
8ff
16gg-
16ff
16ee-
16a
4.ccc
=50
4.bb-
4.gg
=51
8bb-
16aa-
16ee-
16aa-
16gg-
8gg-
4ff
=52
8aa-
16gg-
16dd-
16gg-
16ff
8ff
16ee-
16ff
16aa-
16gg-
=53
8a
20cc
20a
20dd-
20cc
20dd-
4ee-
8dd-
=54
8dd-
16dd-
16ee-
16dd-
16ee-
4ff-
8ee-
=55
8ee-
16ee-
16ff
16ee-
16ff
8gg-
8gg-
8gg-
=56
[4.gg-
8gg-]
16ff
16cc
16ee-
16dd-
=57
4.b-
8g
8r
8r
=58
16r
16a-
8cc
8ff
8ee
8b-
[8dd-
=59
8dd-]
8cc
8ff
8ee
8b-
8dd-
=60
8cc
16cc
16dd-
16cc
16dd-
8ee-
8ee-
8ee-
=61
8ee-
16dd-
16cc
16b-
16cc
8a-
16e-
16d
16d
16d-
=62
16d-
16c
16c
16f
16e-
16b-
8cc
4ee-
=63
8gg
8dd-
[8ff-
8ff-]
8ee-
8aa-
=64
8gg
8dd-
8ff-
16cc
16dd-
16ee-
16ff
16ee-
16ff
=65
8gg-
8gg-
8gg-
8gg-
16ff
16cc
16ee-
16dd-
=66
[4b-
16b-]
16cc
8dd-
16dd-
16ee-
16dd-
16ee-
=67
8ff
8ff
8ff
8ff
16ee-
16b-
16dd-
16cc
=68
16a
16r
8cc
8ff
8ee
8b-
8dd-
=69
16a
16r
8ccc
8fff
8eee
8bb-
8ddd-
=70
16ddd-
16ccc
16ccc
16ddd-
16eee-
16fff
8ggg-
8ggg-
8ggg-
=71
8ggg-
8e-
8e-
8e-
8g-
8g-
=72
16.d-
32c-
16f-
16f-
16a-
16g-
16a-
16g-
16g-
16f
16b--
16a-
=73
16dd-
16a-
16a-
16g
16cc-
16b-
16ee-
16b-
16b-
16a
16dd-
16cc
=74
16gg-
16ff
16bb-
16aa
16ddd-
16ccc
16fff
16eee-
16gg-
16ff
16gg
16ff
=75
16gg-
16ff
16gg
16ff
16gg-
16ff
16gg
16ff
16gg-
16ff
16gg
16ff
=76
16ee
16ff
16fff
16ff#
16fff
16gg
16gg#
16aa
16ddd
16ccc
16bb-
16gg
=77
16fff
16ddd
16eee-
16ggg
16fff
16eee-
16ccc
16aa
16bb-
16ddd
16ccc
16bb-
=78
16gg
16ff
16dd
16ee-
16gg
16ff
16ee-
16cc
16a
16b-
16dd
16cc
=79
16b-
16g
16f
16d
16e-
16g
16f
16e-
16c
16A
16c
16G
=80
4F
8d
4d
8d
=81
4d
8b-
4.d
=82
4c#
8a
4c#
8c
=83
4B-
8e-
4d
8c
=84
8d
8r
8dd
4.dd
=85
4b-
8g
4g
[8f
=86
8f]
8r
8dd
4b-
[8gg
=87
8gg]
8ff
8ee
[4.ff
=88
4ff]
8b-
4.b-
=89
4b-
8ee-
4ee-
8g
=90
4g
8b-
4b-
8cc
=91
[2.f
=92
4f]
8dd
4dd
8b-
=93
4b-
8g
4g
8f
=94
4f
8dd
4b-
[8gg
=95
8gg]
8ff
8ee
[4.ff
=96
4ff]
8b-
4.b-
=97
4b-
8ee-
[4.ee-
=98
4ee-]
8g
4b-
8cc
=99
4cc
8b-
4b-
[8d
=100
16d]
16e-
16d
16a
16f#
16e-
16d
16e-
16d
16b-
16g
16e-
=101
16F#
16e-
16d
16f#
16cc
16dd
16ff#
16ccc
16ccc
16aaa
16r
16ggg
=102
16aa
16fff#
16eee-
16ff#
16ddd
16ccc
16dd
16bb-
16aa
16ee-
16ccc
16bb-
=103
16cc
16aa
16bb-
16ff#
16aa
32r
[32gg
16gg]
16f#
16f#
16f
16f
16e
=104
16e
16f
16e
16b
16g#
16f
16e
16f
16e
16cc
16a
16f
=105
16G#
16f
16e
16g#
16dd
16ee
16gg#
16ddd
16ddd
16bbb
16r
16aaa
=106
16ccc
16aaa
16ggg#
16aa
16fff
16eee
16ff
16ddd
16ccc
16bb
16ddd
16ccc
=107
16dd
16bb
16ccc
16gg#
16bb
[16aa
16aa]
8aa
8aa
[16aa
=108
16aa]
8bb-
8aa
[16ccc
16ccc]
8bb-
16ff#
16gg
[16bb-
=109
16bb-]
8aa
16bb-
16ff#
[16aa
16aa]
16gg
16gg
8ff#
[16gg
=110
16gg]
8aa-
8gg
[16bb-
16bb-]
8aa-
16ee
16ff
[16aa-
=111
16aa-]
8gg
16aa-
16ee
16gg
16gg
16ff
16ff
8ee
16ff
=112
16ff
8gg-
16ff
16ee-
16gg-
16ff
16gg-
16ff
16cc
16dd-
16ff
=113
16ee-
16ff
16ee-
16ff
16dd-
16ee-
16cc
16dd-
16b-
16cc
16a-
16r
=114
16fff
8ggg-
16fff
16eee-
16ggg-
16fff
16ggg-
16fff
16ccc
16ddd-
16fff
=115
16eee-
16fff
16eee-
16fff
16ddd-
16eee-
16ccc
16ddd-
16bb-
16ccc
16aa-
16fff
=116
16eee-
16fff
16eee-
16fff
16ddd-
16eee-
16ccc
16ddd-
16bb-
16ccc
16aa-
16r
=117
16eee-
16fff
16eee-
16fff
16ddd-
16eee-
16ccc
16ddd-
16bb-
16ccc
16aa-
16bb-
=118
16gg
16aa-
16ff
16gg
16ee-
16ff
16ddd-
16eee-
16ccc
16ddd-
16bb-
16ccc
=119
16aa-
16bb-
16gg
16aa-
16ff
16gg
16ee-
16ff
16dd-
16ee-
16cc
16dd-
=120
4.b-
16a
16b-
16cc
16b-
16dd-
16g
=121
4.a-
8a-
16g
16a-
16g
16a-
=122
8b--
8a-
8g-
[8f-
16f-]
16e-
16f-
16e-
=123
4a-
[8a-
8a-]
16g
16a-
16g
16a-
=124
16cc-
16b--
16b--
16a-
16a-
16g-
16f-
16e-
16cc-
16b-
16ff-
16ee-
=125
8aa-
8aa-
8aa-
8aa-
8gg
8ee-
=126
8gg-
8gg-
8gg-
8gg-
8ee--
8dd-
=127
8gg-
8gg-
8gg-
8gg-
8ff
8cc
=128
8ee
8ee
8ee
4ee
16b
16d
=129
16b-
16a
8ee
8ee
8ee
8dd
8cc#
=130
8cc#
8b
8a
4.cc#
=131
8ee
8ee
8ee
8ee
8dd
8cc#
=132
8cc#
8b
8a
4.cc#
=133
8cc#
8b
8a
4.cc#
=134
16cc#
8a
8a
16a
4.cc#
=135
8a
8b-
8dd
8cc#
8g
8b-
=136
8a
8b-
8dd
8cc#
8g
8b-
=137
4r
16a
16b-
8cc
8cc
8cc
=138
8cc
16b-
16a
16g
16a
8f
8r
8r
=139
8c
8d-
8f
8cc
8dd-
8ff
=140
8ee
8b-
8dd-
4r
16cc
16dd-
=141
8ee-
8ee-
8ee-
8ee-
16dd-
16cc
16b-
16cc
=142
8a-
8r
8r
8e-
8f-
8a-
=143
8ee-
8ff-
8aa-
8gg
8dd-
8ff-
=144
4r
16ee-
16ff-
8gg-
8gg-
8gg-
=145
8gg-
16ff
16cc
16ee-
16dd-
8b-
4r
=146
8r
16dd-
16ee-
16dd-
16ee-
8ff
8ff
8ff
=147
8ff
16ee-
16b-
16dd-
16cc
8a
8cc
8ff
=148
8ee
8b-
8dd-
8r
8cc
8ff
=149
16ff
16ee
16b-
16cc
16ee-
16dd-
8r
16cc
16dd-
16cc
16dd-
=150
8ee-
8ee-
8ee-
8ee-
16ff
16cc
16ee-
16dd-
=151
4.b-
4g
8r
=152
8r
8cc
[8ff
32.ff]
32.ee
32.a
32.b-
32.b
32.cc
32.ee-
32.dd-
=153
32.r
32.cc
32.dd-
32.b
32.cc
32.aa-
32.gg
32.ff
16ff
16ee
28r
28a
28b-
28b
28cc
28ee-
28dd-
=154
8r
24cc
24dd-
24cc
24b
24cc
24dd-
40.dd
40.ee-
40.ccc
40.gg
40.bb-
40.aa-
40.cc
40.dd-
40.dd
40.ee-
=155
40.ee
40.gg
40.ff
40.ee-
40.cc
40.ee-
40.dd-
40.f
40.g
40.e-
8a-
8r
8r
=156
4r
8r
8r
8ee-
[8aa-
=157
24aa-]
24gg
24b
24cc
24dd-
24dd
24ee-
24gg-
24ff-
16r
16ee-
24ff
24dd
24ee-
24ccc
24bb-
24aa
=158
24aa-
24gg
24b
24cc
24dd-
24dd
24ee-
24gg-
24ff-
8r
24ee-
24ff
24ee-
24dd
24ee-
24ff
=159
24gg-
24ggg-
24fff
24fff-
24eee-
24ddd-
24ccc
24bb-
24aa
24gg-
24ff
24ee
24ee-
24dd-
24b
24cc
24ee-
24dd-
=160
24cc
24b-
24r
8r
8r
8r
24dd-
24ee-
24dd-
24cc
24dd-
24ee-
=161
24ff
24fff
24ccc
24eee-
24ddd-
24aa-
24ff
24ee-
24dd-
16.cc-
32b-
24cc
24dd-
24ee-
24a
24cc
24b-
=162
24a
24cc
24ee
24gg-
24ff
24aa
24ccc
24ff
24fff
24eee
24ccc
24eee-
24ddd-
24bb-
24gg
24ee
24dd-
24b-
=163
24a
24cc
24ee
24gg-
24ff
24aa
24ccc
24ff
24fff
24eee
24ccc
24eee-
24ddd-
24bb-
24gg-
24eee
24ddd-
24bb-
=164
24aa
24ccc
24eee-
24fff
24aaa-
24ggg-
24eee-
24ccc
24aa
24gg-
24ee-
24cc
24a
24b-
24b
24cc
24dd-
24b-
=165
24a
24cc
24ee-
24ff
24aa
24gg-
24ee-
24cc
24a
24g-
24e-
24c
24A
24B-
24B
24c
24d-
24B-
=166
24A
24B-
24B
24c
24d-
24B-
24A
24B-
24B
24c
24d-
24B-
24A
24B-
24B
24c
24d-
24B-
=167
24A
24c
24e-
24f
24cc
24a-
24g
24g-
24f
24f-
24e-
24d
24d-
24c
24c-
24B-
24A-
24A-
=168
24G
24G-
24F
24F-
24E-
24D
24D-
24C
24C-
24BB-
24AA
24AA-
24GG
24GG-
24FF
24FF-
24EE-
24EE--
=169
4r
8ff
4.ff
=170
4dd-
8b-
4b-
8a-
=171
4a-
8ff
4dd-
8bb-
=172
8bb-
8aa-
8gg
4.aa-
=173
4aa-
8dd-
[4.dd-
=174
4.dd-]
4dd-
8gg-
=175
24gg-
24g-
24b-
24B-
24b-
24e-
24g-
24B-
24cc
24g-
24b-
24d-
24dd-
24g-
24b-
24g-
24gg-
24b-
=176
24dd-
24g-
24ff
24b-
24dd-
24g-
24ff
24a-
24cc
24g-
24ee-
24a-
24cc
24e-
24cc
24g-
24b-
24c
=177
8b-
8a-
8fff
4fff
8ddd-
=178
8ddd-
8f
8bb-
4bb-
8aa-
=179
4aa-
8fff
4ddd-
8bbb-
=180
8bbb-
8aaa-
8ggg
4aaa-
8aa-
=181
4aa-
8dd-
4dd-
8gg-
=182
4ff
8ccc-
4ccc-
8bb-
=183
4bb-
8ee-
4ee-
8aa-
=184
8aa-
8gg
8ddd-
4ddd-
8ccc
=185
8ccc
8bb-
8gg-
8dd-
8.b-
16a-
=186
4a-
[8g-
8g-]
8.f
16g-
=187
4g
8g
4a-
8a
=188
4cc
8b-
8dd-
8b
8cc
=189
4ee-
8dd-
8r
8dd#
8ee
=190
8ff
8bb-
8aa-
4aa-
8gg-
=191
8ff
24r
24f
24a-
24ff
24ff
24aa-
24fff
24aa-
24ff
24ff
24a-
24f
24f
24A-
24F
=192
24f
24F
24A
24f
24f
24a
24ff
24ff
24aa
24fff
24aa
24ff
24ff
24a
24f
24f
24A
24F
=193
24f
24F
24B-
24f
24f
24b-
24ff
24ff
24bb-
24fff
24bb-
24ff
24ff
24b-
24f
24f
24B-
24F
=194
24g
24F
24B
24g
24f
24b
24gg
24ff
24bb
24ggg
24bb
24ff
24gg
24b
24f
24g
24B
24F
=195
8a-
8r
8r
24f
24a-
24b
24cc
24ff
24aa-
24bb
24ccc
24fff
=196
8aaa-
8ff
8dd-
8gg-
8ee
8ccc
=197
8ccc
8r
8r
24f
24a-
24b
24cc
24ff
24aa-
24bb
24ccc
24fff
=198
8aaa-
8ff
8f
8g-
8e
8cc
=199
8cc
8dd
8dd#
8ff#
8bb
8gg#
=200
8aa#
8ccc#
8fff#
8eee
8fff
8ddd-
=201
8ccc
8r
8r
8c
8d-
8f
=202
8g
8g
8g
4r
8r
=203
2.ccc
=204
2.gg
=205
2.ee
=206
2.dd
=207
2.e
=208
2.e
=209
[2.e
=210
4e]
8r
4r
8r
=211
24A-
24a-
24f
24G
24B
24F
24d-
24c
24g
24c
24b-
24a-
24g
24A
24f
24d-
24c
24g
=212
24A-
12a-
12a-
24a-
16a-
32r
32dd-
24dd-
24cc
24b
24b-
24a
24a-[
24a-]
24g
24cc
=213
24a-
24aa-
24ff
24g
24b
24f
24dd-
24cc
24gg
24cc
24bb-
24aa-
24gg
24a
24ff
24dd-
24cc
24gg
=214
24a-
[12aa-
12aa-]
24aa-
16.aa-
[32ddd-
24ddd-]
24ccc
24bb
24bb-
24aa
[24aa-
24aa-]
24gg
24ccc
=215
8aa-
24ff
24ff#
24gg
24aa-
24gg
24ddd-
8gg-
24ee-
24ee
24ff
24gg-
24ff
24ccc-
=216
8ee
24dd-
24dd
24ee-
24ee
24ff
24ff#
24gg
24aa
24gg
24ff#
24gg
24aa
24bb-
24ccc
24ddd-
=217
24ccc
24ggg
24fff
24ccc
24eee-
24ddd-
24aa-
24ccc
24bb-
24cc
24bb-
24aa-
24a-
24gg
24ff
24g
24ee
24b-
=218
16b-
16a-
16ff
16b-
24dd-
24cc
24b-
8a-
[8g
16.g]
32cc
=219
16.f
32b-
16.e-
32a-
16.d
32g
16.c
32f
8f
8e
=220
8e-
4d-
4c
8f
=221
8f
8A
8B-
8c
8a-
8e
=222
8f
8e-
8d-
4c
8c
=223
24f
24A
24g-
24a
24e-
24cc
24ee-
24a
24gg-
24aa
24ee-
24ccc
24ee-
24a
24gg-
24aa
24ee-
24ccc
=224
8eee-
24e-
24f
24g-
8a
8b-
12dd-
12cc
12e
=225
24f
24A
24g-
24a
24e-
24cc
24ee-
24a
24gg-
24aa
24ee-
24ccc
24ee-
24a
24gg-
24aa
24ee-
24ccc
=226
8fff
24ee-
24ff
24gg-
8aa
8bb-
12ddd-
12ccc
12ee
=227
8ff
24D-
24C
24F
24A-
24F
24B-
24A-
24E
24G
24A-
24G
24c
24d-
24c
24a-
=228
24g
24B
24c
24d-
24c
24f
24a-
24f
24b-
24a-
24e
24g
24a-
24g
24cc
24dd-
24cc
24gg
=229
24ff
24B
24c
24d-
24c
24f
24a-
24f
24b-
24a-
24e
24g
24a-
24g
24cc
24dd-
24cc
24aa-
=230
24gg
24b
24cc
24dd-
24cc
24ff
24aa-
24ff
24bb-
24aa-
24ee
24gg
24aa-
24gg
24ccc
24ddd-
24ccc
24ggg
=231
24fff
24fff
24eee
24eee-
24ddd-
24ccc
24bb-
24aa-
24gg
24ff
24ee
24ee-
24dd-
24cc
24b-
24a-
24g
24f
=232
24aaa-
24ggg
24fff
24eee-
24ddd-
24ccc
24bb-
24aa-
24gg
24ff
24ee-
24dd-
24cc
24b-
24a-
24g
24f
24d-
=233
24c
24f
24a-
24cc
24ff
24aa-
24cc
24ff
24aa-
24ddd-
24ccc
24aa-
24ff
24bb-
24aa-
24ff
24cc
24gg
=234
24fff
24ccc
24aa-
24ddd-
24ccc
24aa-
24ff
24bb-
24aa-
24ff
24cc
24gg
24ff
24cc
24a-
24dd-
24cc
24a-
=235
24f
24b-
24a-
24f
24c
24g
24f
24c
24A-
24d-
24c
24A-
24F
24B-
24A-
24F
24C
24G
=236
24F
24C
24AA-
24D-
24C
24AA-
24FF
24D-
24C
24AA-
24FF
24D-
24C
24AA-
24FF
24D-
24C
24AA-
=237
8FF
8r
8r
8ff
8r
8r
=238
8ddd-
8r
8r
8e
8r
8r
=239
2.f
==
*-
